X:32
M:3/2
L:1/4
Q:1/2=100
K:A
c2d2e2 | AB/c/ d/c/B/A/ GB | c2d2e/f/g/e/ | aA2EGB ||
c2d2e2 | AB/c/ d/c/B/A/GB | cedfeg | aA2EGB ||
cB/c/dc/d/ e/f/g/e/ | gB2EGB | cedfeg | aA2EGB |]

